X: 1
T: In These Our Days So Perilous
T: (also known as Grant Peace, We Pray, in Mercy, Lord or Grant Peace in Mercy, Lord, We Pray)
C: Words: Latin c. 6th century, adapted by Martin Luther, 1529.  Translated to English by Richard Massie, 1854, alt. 
C: Music: 'Verleih uns Frieden Gnädiglich' Martin Luther.  Found in Klug's Geistliche Lieder, 1533. 
C: Setting: Erythraeus, 1608.
C: copyright: public domain.  This score is a part of the Open Hymnal Project, 2009 Revision.
M: 4/4 % time signature
L: 1/4 % default length
%%staves (S1V1 S1V2) | (S2V1 S2V2) 
V: S1V1 clef=treble 
%%MIDI beat 127 125 110 1
V: S1V2 
%%MIDI beat 127 125 110 1
V: S2V1 clef=bass 
%%MIDI beat 127 125 110 1
V: S2V2 
%%MIDI beat 127 125 110 1
K: F % key signature
%
%%MIDI program 1 0 % Piano 1
%%MIDI program 2 0 % Piano 1
%%MIDI program 3 0 % Piano 1
%%MIDI program 4 0 % Piano 1
%
% 1
[V: S1V1] [Q:1/4=110] G2 G G | F G B A | !fermata!G2 B2 | c c B c | d2 !fermata!d2 |
w: 1.~In these our days so per- il- ous, Lord, peace in mer- cy send us; 
[V: S1V2]  D2 D D | D E (F//D// G) ^F/ | !ferm!G2 G2 | A E G G | (G ^F/E/) !ferm!^F2 |
[V: S2V1]  B,2 B, B, | A, C D D | !invertedfermata!B,2 D2 | F C D G, | (B, A,/G,/) !invertedfermata!A,2 |
[V: S2V2]  G,2 G, B,, | D, C, B,,3/4C,//D,/ D,/ | !ferm!G,,2 G,2 | F, A, G, _E, | D,2 !ferm!D,2 |
% 5
[V: S1V1]  d d c d | B c (B A) | !fermata!G2 G =F | G (B c) G | (^F G) !fermata!G2 |
w: No God but Thee can fight for * us, No God but Thee * de- fend * us; 
[V: S1V2]  =F F3/2 F/ F | G G2 ^F | !ferm!G2 D D | D G3/4F//_E3/4D// C | D2 !ferm!D2 |
[V: S2V1]  A, B, A, A, | G, (_E D3/2) C/ | !invertedfermata!B,2 B, A, | (B,3/4A,// G,) G, G, | (A, B,) !invertedfermata!B,2 |
[V: S2V2]  D, B,, F, D, | E, C, D,2 | !ferm!G,,2 G, D, | G, _E,3/4D,//C,3/4D,// _E, | (D, G,,) !ferm!G,,2 |
% 9
[V: S1V1]  !sintro!c2 (d c) | B G B A/G/ | (B2 G2) | G4 !eintro!|]
w: Thou our * on- ly God and * Sa- * vior. 
[V: S1V2]  F3 A | G2 D _E | (D2 _E2) | D4 |]
[V: S2V1]  A,2 (B,/A,//G,// A,) | D3/2 C/ B, C | (G, G,/A,/ B, C) | =B,4 |]
[V: S2V2]  F,,2 (B,, F,,) | G,, G,2 C, | (G,3/2 F,/ _E,/D,/ C,) | G,,4 |]
% 15
